X:1
T:Liebesschmerzen
T:Fränkisches Volkslied
T:Max Bruch
T:Liebesschmerzen
T:CPDL - Creative Commons Attribution Non Commercial 3.0
T:CPDL - Creative Commons Attribution Non Commercial 3.0
C:Max Bruch
Z:CPDL - Creative Commons Attribution Non Commercial 3.0
%%score [ 1 2 3 4 ]
L:1/8
Q:1/4=76
M:3/4
K:A
V:1 treble nm="Sopr."
V:2 treble nm="Alt"
V:3 treble-8 nm="Ten."
V:4 bass nm="B"
V:1
!p!"^Sehr mäßig" AB | (cB) (Ac) Bc | (dc) !fermata!B2 Ac | (ed) c2 B (B/c/) | A3 z :| A"^cresc."A | %6
w: 1.~Darf mein|Un- * glück _ nie- mand|kla- * gen, muss ver-|tu- * schen mei- ne _|Pein;|1.~muss mich|
w: was mich|drückt, * darf _ ich nit|sa- * gen, muss da-|bei _ ge- dul- dig _|sein;||
 B2 e2 (B/c/) (B/A/) | A2 G2!p! GA | B2 e2[Q:1/4=70]"^poco rit." (B/c/) (B/A/) | (A2 G2) | %10
w: stel- len ganz * ge- *|las- sen, als wär|ich im Pa- * ra- *|dies, _|
w: ||||
[Q:1/4=76]"^a tempo""^cresc." AB | (cB) (Ac) Bc | (dc) !fermata!B2 Ac | %13
w: und da-|bei _ muss _ ich ver-|las- * sen, was mir|
w: |||
 ed!>(! (c2[Q:1/4=70]"^rit.   -   -   -" B)!>)! B/c/ | !fermata!A4 |] %15
w: noch am lieb- * sten _|ist.|
w: ||
V:2
!p! EG | (AG) (AG) F^A | (B=A) !fermata!G2 EA | (cB) A2 AG | E3 z :| C"^cresc."E | (EF) (GE) F^D | %7
w: 2.~Dir zu|die- * nen _ will ich|le- * ben, schön- ster|Schatz _ auf die- ser|Welt.|2.~Tu ich|schla- * fen _ o- der|
w: Dir hab|ich _ mich _ ganz er-|ge- * ben und als|Lieb- * ste dich er-|wählt.|||
 ^D2 E2!p! EE | (EG) G2 F^D | (^D2 E2) |"^cresc." E (F/G/) | (AG) (F=G) F^A | %12
w: wa- chen, liegt dein|Bild _ mir stets im|Sinn _|und tut _|freund- * lich _ mich an-|
w: |||||
 (B=A) !fermata!^G2 EA | cB!>(! A3!>)! G | !fermata!E4 |] %15
w: la- * chen, als ob|ich schon~ bei dir|bin.|
w: |||
V:3
!p! ce | (Ae) (fe) dc | (Bc/d/) !fermata!e2 ee | (AB) (ce) fd | c3 z :| e"^cresc."c | %6
w: 3.~Un- ter|die- * sen _ Schö- nen|al- * * len, du nur|bist, _ die _ mich er-|freut.|3.~Wenn mein|
w: Doch du|lässt _ mich _ lei- den|Qua- * * len; trau- rig|füh- * len _ mei- ne|Zeit.||
 (BA) (GB) ^df | f2 e2!p! cc | B2 c2 FB | B4 |"^cresc." e=d | (cd) (ce) d f/e/ | %12
w: Herz _ doch _ Fens- ter|hät- te, und du|könn- test se- hen|drein.|Ach, dass|sie's _ er- * bar- men _|
w: ||||||
 (df) !fermata!B2 ee | AB!>(! (ce f)!>)!d | !fermata!c4 |] %15
w: tä- * te. dass ich|lei- de so- * * viel|Pein.|
w: |||
V:4
 z2 | z6 | z4 CA, | (F,G,) A,2 D,E, | A,3 z :| A,,"^cresc."A, | (G,F,) (E,G,) B,B, | %7
 B,2 C2!p! C (B,/A,/) | (G,E,) C,2 ^D,B,, | (B,,2 E,2) |"^cresc." C,B,, | (A,,E,) (F,C,) D,C, | %12
 (B,,D,) !fermata!E,2 CA, | F,G,!>(! (A,C, D,)!>)!E, |"^16. 8. 1914" !fermata!A,,4 |] %15

